folder-image.svg

<svg fill="currentColor" viewBox="0 0 24 24"><path d="m5 17 4.5-6 3.5 4.5 2.5-3L19 17m1-11h-8l-2-2H4a2 2 0 0 0-2 2v12a2 2 0 0 0 2 2h16a2 2 0 0 0 2-2V8a2 2 0 0 0-2-2"/></svg>

<svg  viewBox="0 0 24 24" fill="currentColor"><path  d="M5,17L9.5,11L13,15.5L15.5,12.5L19,17M20,6H12L10,4H4A2,2 0 0,0 2,6V18A2,2 0 0,0 4,20H20A2,2 0 0,0 22,18V8A2,2 0 0,0 20,6Z"/></svg>
